X: 1
T:Bourr\'ee
M:3/8
O:France
R:Bourr\'ee
K:Dm
D2DFED| A4A=B| c=BAdcB| c=BABAG| | D2DFED| A4A=B| cBAdBd|1 A4 :|2 A4de |:
f2Afed| B4de| fdgfed| ^c2d2e2| f2Afed| B4de| fdgfe^c |1 d4de :| d6|]
